img/elem/ElemCurveMirror.svg

<svg height="256" width="128" xmlns="http://www.w3.org/2000/svg">
  <g fill="none" stroke="#000">
    <path d="m111.33978 7.065277-90.000001 60 90.000001 55.000003" stroke-width="7"/>
    <path d="m16.339779 66.5h95.000001" stroke-dasharray="8 2 1 2"/>
    <path d="m91.339779 122.06528h20.000001l-10-20" stroke-linecap="round" stroke-width="7"/>
    <path d="m77.301686 32.843803c5.112767 10.138732 7.887609 21.397199 8.101042 32.868652" stroke-linecap="round" stroke-linejoin="bevel"/>
    <path d="m76.404265 41.284424 1.371359-7.444518 7.052701 4.309984"/>
    <path d="m88.746493 59.112086-3.330443 6.856793-4.114075-6.269068"/>
    <path d="m111.33978 131.06528-78.245499 60 78.245499 55" stroke-width="7"/>
    <path d="m91.339779 246.06528h20.000001l-10-20" stroke-linecap="round" stroke-width="7"/>
    <path d="m28.094281 190.5h83.245499" stroke-dasharray="8 2 1 2"/>
    <path d="m83.301686 156.8438c5.112767 10.13873 7.887609 21.3972 8.101042 32.86866" stroke-linecap="round" stroke-linejoin="bevel"/>
    <path d="m82.404265 165.28442 1.371359-7.44451 7.052701 4.30998"/>
    <path d="m94.746493 183.11209-3.330443 6.85679-4.114075-6.26907"/>
  </g>
  <text font-family="Times New Roman" font-size="10" font-style="italic" x="32.128971" y="130.61864"><tspan font-size="28" x="32.128971" y="130.61864">R&gt;0</tspan></text>
  <text font-family="Times New Roman" font-size="10" font-style="italic" x="28.128971" y="252.61864"><tspan font-size="28" x="28.128971" y="252.61864">R&lt;0</tspan></text>
  <text font-family="Times New Roman" font-size="28" font-style="italic" x="90.077026" y="50.523399"><tspan x="90.077026" y="50.523399">α</tspan></text>
  <text font-family="Times New Roman" font-size="28" font-style="italic" x="95.618149" y="174.64461"><tspan x="95.618149" y="174.64461">α</tspan></text>
  <path d="m16.415659 245.06841h-10.57665v-109.00362h10.57665c13.258252 24.92551 13.258252 84.43166 0 109.00362z" fill="none" stroke="#000" stroke-width="3"/>
  <path d="m25.354505 209.10567-19.702555-23.11677m20.144497 15.6471-20.144497-23.6471m20.232885 15.73549-20.232885-23.73549m20.894457 17.09156-20.894457-25.09156m20.038301 16.5283-20.038301-24.5283m18.944709 15.09376-18.944709-23.09376m17.590993 12.68946-16.86372-20.96218m18.268175 79.03594-18.995448-22.76322m18.270534 30.13425-18.270534-22.13425m16.962191 27.8486-16.962191-19.8486m15.562778 25.65621-15.562778-17.65621m13.423974 22.71435-13.423974-14.71435m11.035293 19.93178-11.035293-11.93178m4.512605 12.61359-4.512605-4.61359m6.308179-104.50955 8.900948 10.8976" fill="none" stroke="#000"/>
  <path d="m15.345341 68.818967-9.27273-11.272727m9.27273 3.272727-9.27273-11.272727m9.27273 3.272727-9.27273-11.272727m10.818185 4.363636-10.818185-12.363636m11.818185 6.363636-11.818185-14.363639m13.818185 8.818185-13.818185-16.818185m16.000003 11.363639-15.27273-19.6363587m8.545457 67.5454497-9.27273-11.272727m11.818185 22.090909-11.818185-14.090909m15.636366 25.727277-15.636366-17.727277m22.545457 32.72728-22.545457-24.72728m18.727275 28.63637-18.727275-20.636373m12.27273 20.727283-12.27273-12.72728m4.954547 13.40909-4.954547-5.40909m8.164334-103.006953 10.226774 13.37248m-5.049525-15.0583097 8.748278 10.9940197" fill="none" stroke="#000"/>
  <path d="m30.50787 14.509663c-18.800735 27.609971-20.315898 69.933267-.56247 100.010607l-2.72831 3.93307h-20.57665v-109.003617h20.75847z" fill="none" stroke="#000" stroke-width="3"/>
</svg>

<?xml version="1.0" encoding="UTF-8" standalone="no"?>
<!-- Created with Inkscape (http://www.inkscape.org/) -->
<svg
   xmlns:svg="http://www.w3.org/2000/svg"
   xmlns="http://www.w3.org/2000/svg"
   version="1.0"
   width="128"
   height="256"
   id="svg4160">
  <defs
     id="defs4162" />
  <path
     d="M 111.33978,7.065277 L 21.339779,67.065277 L 111.33978,122.06528"
     id="path2728"
     style="fill:none;fill-rule:evenodd;stroke:#000000;stroke-width:7;stroke-linecap:butt;stroke-linejoin:miter;stroke-miterlimit:4;stroke-dasharray:none;stroke-opacity:1" />
  <path
     d="M 16.339779,66.5 L 111.33978,66.5"
     id="path2730"
     style="fill:none;fill-rule:evenodd;stroke:#000000;stroke-width:1;stroke-linecap:butt;stroke-linejoin:miter;stroke-miterlimit:4;stroke-dasharray:8, 2, 1, 2;stroke-dashoffset:0;stroke-opacity:1" />
  <path
     d="M 91.339779,122.06528 L 111.33978,122.06528 L 101.33978,102.06528"
     id="path3540"
     style="fill:none;fill-rule:evenodd;stroke:#000000;stroke-width:7;stroke-linecap:round;stroke-linejoin:miter;stroke-miterlimit:4;stroke-dasharray:none;stroke-opacity:1" />
  <path
     d=""
     id="path6300"
     style="fill:none;fill-rule:evenodd;stroke:#000000;stroke-width:1px;stroke-linecap:butt;stroke-linejoin:miter;stroke-opacity:1" />
  <path
     d="M 77.301686,32.843803 C 82.414453,42.982535 85.189295,54.241002 85.402728,65.712455"
     id="path6322"
     style="fill:none;fill-opacity:1;fill-rule:nonzero;stroke:#000000;stroke-width:1;stroke-linecap:round;stroke-linejoin:bevel;stroke-miterlimit:4;stroke-dasharray:none;stroke-dashoffset:0;stroke-opacity:1" />
  <path
     d="M 76.404265,41.284424 L 77.775624,33.839906 L 84.828325,38.14989"
     id="path6324"
     style="fill:none;fill-rule:evenodd;stroke:#000000;stroke-width:1px;stroke-linecap:butt;stroke-linejoin:miter;stroke-opacity:1" />
  <path
     d="M 88.746493,59.112086 L 85.41605,65.968879 L 81.301975,59.699811"
     id="path6326"
     style="fill:none;fill-rule:evenodd;stroke:#000000;stroke-width:1px;stroke-linecap:butt;stroke-linejoin:miter;stroke-opacity:1" />
  <path
     d="M 111.33978,131.06528 L 33.094281,191.06528 L 111.33978,246.06528"
     id="path6330"
     style="fill:none;fill-rule:evenodd;stroke:#000000;stroke-width:7;stroke-linecap:butt;stroke-linejoin:miter;stroke-miterlimit:4;stroke-dasharray:none;stroke-opacity:1" />
  <path
     d="M 91.339779,246.06528 L 111.33978,246.06528 L 101.33978,226.06528"
     id="path6332"
     style="fill:none;fill-rule:evenodd;stroke:#000000;stroke-width:7;stroke-linecap:round;stroke-linejoin:miter;stroke-miterlimit:4;stroke-dasharray:none;stroke-opacity:1" />
  <path
     d="M 28.094281,190.5 L 111.33978,190.5"
     id="path6334"
     style="fill:none;fill-rule:evenodd;stroke:#000000;stroke-width:1;stroke-linecap:butt;stroke-linejoin:miter;stroke-miterlimit:4;stroke-dasharray:8, 2, 1, 2;stroke-dashoffset:0;stroke-opacity:1" />
  <path
     d="M 83.301686,156.8438 C 88.414453,166.98253 91.189295,178.241 91.402728,189.71246"
     id="path6336"
     style="fill:none;fill-opacity:1;fill-rule:nonzero;stroke:#000000;stroke-width:1;stroke-linecap:round;stroke-linejoin:bevel;stroke-miterlimit:4;stroke-dasharray:none;stroke-dashoffset:0;stroke-opacity:1" />
  <path
     d="M 82.404265,165.28442 L 83.775624,157.83991 L 90.828325,162.14989"
     id="path6338"
     style="fill:none;fill-rule:evenodd;stroke:#000000;stroke-width:1px;stroke-linecap:butt;stroke-linejoin:miter;stroke-opacity:1" />
  <path
     d="M 94.746493,183.11209 L 91.41605,189.96888 L 87.301975,183.69981"
     id="path6340"
     style="fill:none;fill-rule:evenodd;stroke:#000000;stroke-width:1px;stroke-linecap:butt;stroke-linejoin:miter;stroke-opacity:1" />
  <text
     x="32.128971"
     y="130.61864"
     id="text6342"
     xml:space="preserve"
     style="font-size:10px;font-style:italic;font-variant:normal;font-weight:normal;font-stretch:normal;text-align:start;line-height:125%;writing-mode:lr-tb;text-anchor:start;fill:#000000;fill-opacity:1;stroke:none;stroke-width:1px;stroke-linecap:butt;stroke-linejoin:miter;stroke-opacity:1;font-family:Times New Roman;-inkscape-font-specification:Times New Roman Italic"><tspan
       x="32.128971"
       y="130.61864"
       id="tspan6344"
       style="font-size:28px">R&gt;0</tspan></text>
  <text
     x="28.128971"
     y="252.61864"
     id="text6346"
     xml:space="preserve"
     style="font-size:10px;font-style:italic;font-variant:normal;font-weight:normal;font-stretch:normal;text-align:start;line-height:125%;writing-mode:lr-tb;text-anchor:start;fill:#000000;fill-opacity:1;stroke:none;stroke-width:1px;stroke-linecap:butt;stroke-linejoin:miter;stroke-opacity:1;font-family:Times New Roman;-inkscape-font-specification:Times New Roman Italic"><tspan
       x="28.128971"
       y="252.61864"
       id="tspan6348"
       style="font-size:28px">R&lt;0</tspan></text>
  <text
     x="90.077026"
     y="50.523399"
     id="text6521"
     xml:space="preserve"
     style="font-size:28px;font-style:italic;font-variant:normal;font-weight:normal;font-stretch:normal;text-align:start;line-height:100%;writing-mode:lr-tb;text-anchor:start;fill:#000000;fill-opacity:1;stroke:none;stroke-width:1px;stroke-linecap:butt;stroke-linejoin:miter;stroke-opacity:1;font-family:Times New Roman;-inkscape-font-specification:Times New Roman Italic"><tspan
       x="90.077026"
       y="50.523399"
       id="tspan6525">α</tspan></text>
  <text
     x="95.618149"
     y="174.64461"
     id="text6527"
     xml:space="preserve"
     style="font-size:28px;font-style:italic;font-variant:normal;font-weight:normal;font-stretch:normal;text-align:start;line-height:100%;writing-mode:lr-tb;text-anchor:start;fill:#000000;fill-opacity:1;stroke:none;stroke-width:1px;stroke-linecap:butt;stroke-linejoin:miter;stroke-opacity:1;font-family:Times New Roman;-inkscape-font-specification:Times New Roman Italic"><tspan
       x="95.618149"
       y="174.64461"
       id="tspan6529">α</tspan></text>
  <path
     d="M 16.415659,245.06841 L 5.839009,245.06841 L 5.839009,136.06479 L 16.415659,136.06479 C 29.673911,160.9903 29.673911,220.49645 16.415659,245.06841 z"
     id="path5474"
     style="fill:none;fill-opacity:1;fill-rule:nonzero;stroke:#000000;stroke-width:3;stroke-linecap:butt;stroke-linejoin:miter;stroke-miterlimit:4;stroke-dashoffset:0;stroke-opacity:1" />
  <path
     d="M 25.354505,209.10567 L 5.65195,185.9889 M 25.796447,201.636 L 5.65195,177.9889 M 25.884835,193.72439 L 5.65195,169.9889 M 26.546407,187.08046 L 5.65195,161.9889 M 25.690251,178.5172 L 5.65195,153.9889 M 24.596659,169.08266 L 5.65195,145.9889 M 23.242943,158.67836 L 6.379223,137.71618 M 24.647398,216.75212 L 5.65195,193.9889 M 23.922484,224.12315 L 5.65195,201.9889 M 22.614141,229.8375 L 5.65195,209.9889 M 21.214728,235.64511 L 5.65195,217.9889 M 19.075924,240.70325 L 5.65195,225.9889 M 16.687243,245.92068 L 5.65195,233.9889 M 10.164555,246.60249 L 5.65195,241.9889 M 11.960129,137.47935 L 20.861077,148.37695"
     id="path5472"
     style="fill:none;fill-rule:evenodd;stroke:#000000;stroke-width:1px;stroke-linecap:butt;stroke-linejoin:miter;stroke-opacity:1" />
  <path
     d="M 15.345341,68.818967 L 6.072611,57.54624 M 15.345341,60.818967 L 6.072611,49.54624 M 15.345341,52.818967 L 6.072611,41.54624 M 16.890796,45.909876 L 6.072611,33.54624 M 17.890796,39.909876 L 6.072611,25.546237 M 19.890796,34.364422 L 6.072611,17.546237 M 22.072614,28.909876 L 6.799884,9.2735173 M 15.345341,76.818967 L 6.072611,65.54624 M 17.890796,87.637149 L 6.072611,73.54624 M 21.708977,99.273517 L 6.072611,81.54624 M 28.618068,114.27352 L 6.072611,89.54624 M 24.799886,118.18261 L 6.072611,97.546237 M 18.345341,118.27352 L 6.072611,105.54624 M 11.027158,118.95533 L 6.072611,113.54624 M 14.236945,10.539287 L 24.463719,23.911767 M 19.414194,8.8534573 L 28.162472,19.847477"
     id="path4420"
     style="fill:none;fill-rule:evenodd;stroke:#000000;stroke-width:1px;stroke-linecap:butt;stroke-linejoin:miter;stroke-opacity:1" />
  <path
     d="M 30.50787,14.509663 C 11.707135,42.119634 10.191972,84.44293 29.9454,114.52027 L 27.21709,118.45334 L 6.64044,118.45334 L 6.64044,9.449723 L 27.39891,9.449723 L 30.50787,14.509663 z"
     id="path4484"
     style="fill:none;fill-opacity:1;fill-rule:nonzero;stroke:#000000;stroke-width:3;stroke-linecap:butt;stroke-linejoin:miter;stroke-miterlimit:4;stroke-dashoffset:0;stroke-opacity:1" />
</svg>
